icon-themes/sifr_svg/cmd/lc_diagramaxisx.svg

<svg viewBox="0 0 24 24" xmlns="http://www.w3.org/2000/svg"><g fill="#555753"><path d="m4 1v17h-2v2h2v2h2v-2h17v-2h-17v-17z"/><path d="m8 20v2h2v-2zm4 0v2h2v-2zm4 0v2h2v-2zm4 0v2h2v-2z"/></g></svg>

<svg xmlns="http://www.w3.org/2000/svg" viewBox="0 0 24 24">
  <path
     style="fill:#555753"
     d="M 4,1 V 18 H 2 v 2 h 2 v 2 H 6 V 20 H 23 V 18 H 6 V 1 Z"
     />
  <path
     style="fill:#555753"
     d="m 8,20 v 2 h 2 v -2 z m 4,0 v 2 h 2 v -2 z m 4,0 v 2 h 2 v -2 z m 4,0 v 2 h 2 v -2 z"
     />
</svg>
